images/linkedin-icon.svg

<svg id="Layer_1" data-name="Layer 1" xmlns="http://www.w3.org/2000/svg" width="16" height="16" viewBox="0 0 16 16"><title>Artboard 1</title><path d="M14.4,0H1.6A1.6,1.6,0,0,0,0,1.6V14.4A1.6,1.6,0,0,0,1.6,16H14.4A1.6,1.6,0,0,0,16,14.4V1.6A1.6,1.6,0,0,0,14.4,0ZM4.8,13.6H2.4V6.4H4.8ZM3.6,5A1.44,1.44,0,1,1,5,3.6,1.44,1.44,0,0,1,3.6,5Zm10,8.56H11.2V9.36a1.2,1.2,0,0,0-2.4,0V13.6H6.4V6.4H8.8v1a2.58,2.58,0,0,1,2-1.12A2.84,2.84,0,0,1,13.6,9Zm0,0" fill="#fff"/></svg>

<?xml version="1.0" encoding="utf-8"?>
<!-- Generator: Adobe Illustrator 21.1.0, SVG Export Plug-In . SVG Version: 6.00 Build 0)  -->
<svg version="1.1" id="Layer_1" xmlns="http://www.w3.org/2000/svg" xmlns:xlink="http://www.w3.org/1999/xlink" x="0px" y="0px"
	 viewBox="0 0 16 16" style="enable-background:new 0 0 16 16;" xml:space="preserve">
<style type="text/css">
	.st0{fill:#FFFDF3;}
</style>
<title>Artboard 1</title>
<path class="st0" d="M14.4,0H1.6C0.7,0,0,0.7,0,1.6v12.8C0,15.3,0.7,16,1.6,16c0,0,0,0,0,0h12.8c0.9,0,1.6-0.7,1.6-1.6c0,0,0,0,0,0
	V1.6C16,0.7,15.3,0,14.4,0C14.4,0,14.4,0,14.4,0z M4.8,13.6H2.4V6.4h2.4V13.6z M3.6,5C2.8,5,2.1,4.4,2.1,3.6s0.6-1.5,1.4-1.5
	S5,2.7,5,3.5c0,0,0,0.1,0,0.1C5,4.4,4.4,5,3.6,5z M13.6,13.6h-2.4V9.4c0-0.7-0.5-1.2-1.2-1.2c-0.7,0-1.2,0.5-1.2,1.2v4.2H6.4V6.4
	h2.4v1c0.5-0.7,1.2-1.1,2-1.1c1.5,0,2.7,1.2,2.8,2.7V13.6z"/>
</svg>
